!!!COM: Palestrina, Giovanni Perluigi da
!!!OPR: Sine nomine (Mantuan)
!!!OTL: Sanctus
**kern	**kern	**kern	**kern
*Ibass	*Itenor	*Icalto	*Icant
!Bassus	!Tenor	!Altus	!Cantus
*clefF4	*clefGv2	*clefG2	*clefG2
*k[]	*k[]	*k[]	*k[]
*G:mix	*G:mix	*G:mix	*G:mix
*M4/2	*M4/2	*M4/2	*M4/2
=1	=1	=1	=1
0C	1r	0e	0g
.	[1c	.	.
=2	=2	=2	=2
0G	2c]	0d	0g
.	4B	.	.
.	4A	.	.
.	1B	.	.
=3	=3	=3	=3
1r	0c	0g	0e
[1c	.	.	.
=4	=4	=4	=4
2c]	0G	0g	0d
4B	.	.	.
4A	.	.	.
1B	.	.	.
=5	=5	=5	=5
1c	2.A	0e	1r
.	4B	.	.
1A	1c	.	[1a
=6	=6	=6	=6
0E	0B	0e	2a]
.	.	.	4g#
.	.	.	4f#
.	.	.	1g#
=7	=7	=7	=7
1F	0A	1r	1a
1D	.	[1d	1f
=8	=8	=8	=8
0A	1r	2d]	0e
.	.	4c#	.
.	.	4B	.
.	1e	1c#	.
=9	=9	=9	=9
1D	1f	1d	1r
2E	1e	2B	[1g
2C	.	2c	.
=10	=10	=10	=10
0D	0d	0A	2g]
.	.	.	4f#
.	.	.	4e
.	.	.	1f#
=11	=11	=11	=11
1E	1r	0G	1g
1C	[1c	.	1e
=12	=12	=12	=12
0G	2c]	1r	[0d
.	4B	.	.
.	4A	.	.
.	2B	[1g	.
.	2G	.	.
=13	=13	=13	=13
0D	0A	2g]	0d]
.	.	4f#	.
.	.	4e	.
.	.	1f#	.
=14	=14	=14	=14
0G	1G	0g	2r
.	.	.	1d
.	2r	.	.
.	[2g	.	2B
=15	=15	=15	=15
0r	2g]	0r	1c
.	2e	.	.
.	1f	.	1d
=16	=16	=16	=16
0r	1g	0r	2G
.	.	.	2.g
.	2c	.	.
.	.	.	4f
.	[2g	.	4e
.	.	.	4d
=17	=17	=17	=17
0r	4g]	0r	2e
.	4f	.	.
.	4e	.	2.c
.	4d	.	.
.	2e	.	.
.	.	.	4d
.	[2c	.	[2e
=18	=18	=18	=18
1.G	2c]	0r	2e]
.	4B	.	4d
.	4A	.	4c
.	2B	.	2d
2E	2e	.	2g
=19	=19	=19	=19
1F	2d	1r	2.f
.	1c	.	.
.	.	.	4e
1G	.	2r	1d
.	2B	[2g	.
=20	=20	=20	=20
1C	1c	2g]	2e
.	.	2e	2.g
1r	1d	1f	.
.	.	.	4f
.	.	.	[2f
=21	=21	=21	=21
2r	1c	1g	4f]
.	.	.	4e
2c	.	.	1e
2A	1r	2c	.
2B	.	[2g	2d
=22	=22	=22	=22
1c	2r	4g]	1e
.	.	4f	.
.	2.g	4e	.
.	.	4d	.
2C	.	1e	1r
.	4f	.	.
[2c	4e	.	.
.	4d	.	.
=23	=23	=23	=23
4c]	2e	2c	0r
4B	.	.	.
4A	2.c	2.e	.
4G	.	.	.
1A	.	.	.
.	4d	4d	.
.	4e	[2c	.
.	4f	.	.
=24	=24	=24	=24
0G	1g	2c]	2r
.	.	4B	1d
.	.	4A	.
.	2.d	1B	.
.	.	.	2B
.	4e	.	.
=25	=25	=25	=25
2F	2f	2A	1c
2E	1g	2G	.
1D	.	2A	1d
.	2f	2B	.
=26	=26	=26	=26
0C	2.e	2.c	2G
.	.	.	2.g
.	4d	4d	.
.	[1c	4e	.
.	.	4f	4f
.	.	[2g	4e
.	.	.	4d
=27	=27	=27	=27
0r	1c]	4g]	2e
.	.	4f	.
.	.	2e	1c
.	1G	1d	.
.	.	.	2B
=28	=28	=28	=28
2r	0r	2.c	2.e
1c	.	.	.
.	.	4B	4d
.	.	2A	2e
2A	.	2F	2f
=29	=29	=29	=29
1B	2r	1G	1d
.	2.g	.	.
1c	.	1r	2e
.	4f	.	.
.	4e	.	[2g
.	4d	.	.
=30	=30	=30	=30
2C	2e	0r	4g]
.	.	.	4f
2.c	2e	.	4e
.	.	.	4d
.	1A	.	2e
4B	.	.	.
4A	.	.	[2c
4G	.	.	.
=31	=31	=31	=31
2A	2r	1r	2c]
2F	1d	.	2A
1G	.	2r	1B
.	2B	[2g	.
=32	=32	=32	=32
1E	1c	2g]	1G
.	.	2e	.
1D	1d	1f	2A
.	.	.	2d
=33	=33	=33	=33
[0C	2G	1g	2e
.	2.g	.	2c
.	.	2c	2.e
.	4f	.	.
.	4e	[2g	.
.	4d	.	4f
=34	=34	=34	=34
0C]	2e	4g]	[0g
.	.	4f	.
.	2.c	4e	.
.	.	4d	.
.	.	2e	.
.	4d	.	.
.	[2e	[2c	.
=35	=35	=35	=35
0G	2e]	2c]	1g]
.	4d	4B	.
.	4c	4A	.
.	1d	1B	2r
.	.	.	[2g
=36	=36	=36	=36
1C	2.c	1e	2g]
.	.	.	2e
.	4B	.	.
1D	1A	1d	1f
=37	=37	=37	=37
0C	1.c	2r	1g
.	.	2.g	.
.	.	.	2c
.	.	4f	.
.	4B	4e	[2g
.	4A	4d	.
=38	=38	=38	=38
0C	0G	2e	4g]
.	.	.	4f
.	.	2.c	4e
.	.	.	4d
.	.	.	2e
.	.	4d	.
.	.	[2e	2c
=39	=39	=39	=39
1E	0G	4e]	1B
.	.	4d	.
.	.	2B	.
1C	.	1c	1e
=40	=40	=40	=40
[0G	[0G	[0B	[0d
=41	=41	=41	=41
0G]	0G]	0B]	0d]
*	*	*	*-
!! Pleni
*Itenor	*Icalto	*Icant
!Tenor	!Altus	!Cantus
*clefGv2	*clefG2	*clefG2
*k[]	*k[]	*k[]
*G:mix	*G:mix	*G:mix
*M4/2	*M4/2	*M4/2
=42	=42	=42
0r	0r	1g
.	.	2e
.	.	2e
=43	=43	=43
0r	0r	1a
.	.	2.g
.	.	4f
=44	=44	=44
0r	1g	4e
.	.	4d
.	.	1e
.	2e	.
.	2e	2c
=45	=45	=45
0r	1a	1f
.	2.g	2.e
.	4f	4d
=46	=46	=46
1g	4e	4c
.	4d	4B
.	1e	2.c
2e	.	.
.	.	4B
2e	2c	4A
.	.	4G
=47	=47	=47
1a	1f	1F
2.g	2.e	1c
4f	4d	.
=48	=48	=48
4e	4c	2r
4d	4B	.
1e	2.c	2g
.	.	2e
.	4B	.
2c	4A	2e
.	4G	.
=49	=49	=49
1f	1F	1a
2.e	1c	2.g
4d	.	4f
=50	=50	=50
4c	2r	4e
4B	.	4d
2.c	2g	1e
.	2e	.
4B	.	.
4A	2e	2c
4G	.	.
=51	=51	=51
1F	1a	1f
[1c	2.g	2.e
.	4f	4d
=52	=52	=52
1c]	4e	4c
.	4d	4B
.	2.e	2.c
1A	.	.
.	4d	4d
.	[2c	4e
.	.	4c
=53	=53	=53
1G	2c]	1d
.	2B	.
2r	2c	1c
2g	2e	.
=54	=54	=54
2e	2c	0r
2e	2c	.
1a	1f	.
=55	=55	=55
1g	0e	2r
.	.	2c
2r	.	2A
[2a	.	2A
=56	=56	=56
4a]	2r	1d
4g	.	.
1f	1a	.
.	.	1c
2e	2g	.
=57	=57	=57
2d	2f	0r
2c	2e	.
2f	2d	.
2e	2c	.
=58	=58	=58
2.d	2.f	2r
.	.	1a
4c	4e	.
1B	[1d	.
.	.	2g
=59	=59	=59
1A	2d]	2f
.	2c	2e
1r	2f	2d
.	2e	2c
=60	=60	=60
2r	1d	1.f
1a	.	.
.	1c	.
2g	.	2e
=61	=61	=61
2f	2r	2d
2e	2A	2c
2d	2B-	2.f
2c	2A	.
.	.	4e
=62	=62	=62
2.f	1F	2d
.	.	1c
4e	.	.
1d	1G	.
.	.	2B
=63	=63	=63
0c	1c	1c
.	2r	2r
.	[2c	[2e
=64	=64	=64
0r	2c]	2e]
.	2B	2d
.	2c	2e
.	2d	2f
=65	=65	=65
2r	2.e	1g
1e	.	.
.	4d	.
.	2c	1g
2d	2B	.
=66	=66	=66
2e	1A	2r
2f	.	1c
2.g	1G	.
.	.	2B
4f	.	.
=67	=67	=67
2e	0r	2c
2d	.	2d
2c	.	2.e
2B	.	.
.	.	4d
=68	=68	=68
2A	2r	2c
2G	1g	2B
2r	.	1A
[2c	2f	.
=69	=69	=69
2c]	2.g	2G
2B	.	1g
.	4f	.
2c	2e	.
2d	2d	2f
=70	=70	=70
2.e	2c	2.g
.	2G	.
4d	.	4f
2c	2A	2e
2B	2B	[2d
=71	=71	=71
1A	1c	4d]
.	.	4c
.	.	1c
1G	1d	.
.	.	2B
=72	=72	=72
0c	2c	2c
.	1g	1e
.	2e	2c
=73	=73	=73
2r	2f	2d
2c	2g	2e
2A	[1a	1f
2F	.	.
=74	=74	=74
1c	2a]	1e
.	2g	.
1F	1f	1a
=75	=75	=75
[0c	[0e	[0g
=76	=76	=76
0c]	0e]	0g]
*-	*-	*-
!! Hosanna
**kern	**kern	**kern	**kern
*Ibass	*Itenor	*Icalto	*Icant
!Bassus	!Tenor	!Altus	!Cantus
*clefF4	*clefGv2	*clefG2	*clefG2
*k[]	*k[]	*k[]	*k[]
*G:mix	*G:mix	*G:mix	*G:mix
*M4/2	*M4/2	*M4/2	*M4/2
=77	=77	=77	=77
0C	0c	0e	0g
=78	=78	=78	=78
1G	1B	1d	1g
1C	1c	1e	1g
=79	=79	=79	=79
1.F	1.c	1.f	1.a
2E	2c	2g	2g
=80	=80	=80	=80
2.F	0c	1.a	1f
4G	.	.	.
4A	.	.	1e
4B	.	.	.
[2c	.	4g	.
.	.	4f	.
=81	=81	=81	=81
2c]	0G	0g	0d
4B	.	.	.
4A	.	.	.
1B	.	.	.
=82	=82	=82	=82
1c	2r	1e	0c
.	2.g	.	.
1C	.	2r	.
.	4f	.	.
.	[2e	[2c	.
=83	=83	=83	=83
1G	2e]	2c]	0r
.	4d	4B	.
.	4c	4A	.
1r	2d	2B	.
.	2e	2c	.
=84	=84	=84	=84
1r	1B	1G	0d
[1G	1r	[1B	.
=85	=85	=85	=85
2G]	1r	2B]	1d
4F#	.	4A	.
4E	.	4G	.
2F#	2r	2A	1d
2G	[2g	2B	.
=86	=86	=86	=86
2C	4g]	4c	1.e
.	4f	4d	.
1c	4e	4e	.
.	4d	4f	.
.	2c	1g	.
2B	2d	.	2d
=87	=87	=87	=87
2A	2e	4a	1c
.	.	4e	.
2F	2f	1a	.
1G	[1d	.	1B
.	.	[2g	.
=88	=88	=88	=88
0D	0d]	2g]	0A
.	.	4f#	.
.	.	4e	.
.	.	1f#	.
=89	=89	=89	=89
1E	1B	1g	0G
1C	2r	2r	.
.	[2c	[2e	.
=90	=90	=90	=90
1G	2c]	2e]	0r
.	4B	4d	.
.	4A	4c	.
2r	2B	2d	.
[2c	2c	2e	.
=91	=91	=91	=91
2c]	1G	1d	0g
4B	.	.	.
4A	.	.	.
2B	2r	2r	.
2c	[2c	[2e	.
=92	=92	=92	=92
1G	2c]	2e]	1g
.	4B	4d	.
.	4A	4c	.
1r	2B	2d	1g
.	2c	2e	.
=93	=93	=93	=93
1A	2A	1f	1.a
.	1f	.	.
2c	.	1r	.
2c	[2e	.	2g
=94	=94	=94	=94
1d	4e]	2r	1f
.	4d	.	.
.	1d	2a	.
1A	.	2a	1e
.	2c	[2a	.
=95	=95	=95	=95
0B-	1f	2a]	0d
.	.	4g	.
.	.	4f	.
.	1d	1g	.
=96	=96	=96	=96
2.A	2e	1.a	0c
.	4A	.	.
4G	4B	.	.
2F	4c	.	.
.	4d	.	.
2E	[2e	2g	.
=97	=97	=97	=97
2F	4e]	1f	0r
.	4d	.	.
2D	1d	.	.
1A	.	1e	.
.	2c#	.	.
=98	=98	=98	=98
2.B-	1d	2d	0d
.	.	2f	.
4A	.	.	.
2G	2r	2g	.
2F	2A	[2a	.
=99	=99	=99	=99
1G	2B	4a]	1d
.	.	4g	.
.	2G	1g	.
1D	1A	.	1d
.	.	2f#	.
=100	=100	=100	=100
1.C	2.c	1.g	1.e
.	4d	.	.
.	2e	.	.
2D	2f	2f	2d
=101	=101	=101	=101
2E	2g	2e	1c
2F	2.a	2A	.
1G	.	[1d	1B
.	4g	.	.
.	[2g	.	.
=102	=102	=102	=102
0D	2g]	1d]	0A
.	4f#	.	.
.	4e	.	.
.	1f#	2.d	.
.	.	4c	.
=103	=103	=103	=103
0E	2.g	4B	[0G
.	.	4A	.
.	.	2B	.
.	4f	.	.
.	4e	2G	.
.	4d	.	.
.	[2e	[2g	.
=104	=104	=104	=104
1C	4e]	4g]	0G]
.	4d	4f	.
.	4c	4e	.
.	4B	4d	.
1C	1c	1e	.
=105	=105	=105	=105
[0G	[0B	[0d	[0G
=106	=106	=106	=106
0G]	0B]	0d]	0G]
==	==	==	==
*-	*-	*-	*-
!!!CDT: 1525/^1526/-1594/2/2
!!!OCY: Italia
!!!AGN: Mass (Free)
!!!AST: renaissance, vocal
!!!ASW: Motet (Maffoni)
!!!PWK: Masses, Book Mantuan II
!!!RNB: Cadence finals: C
!!!YOR: Le Opere Complete, v. 19, p. 168
!!!YOO: Rome, Italy: Fratelli Scalera
!!!END: 1992//
!!!EED: John Miller
!!!YEC: Copyright 2000, John Miller
!!!YEN: United States of America
!!!YEM: Rights to all derivative electronic formats reserved.
!!!YEM: Refer to licensing agreement for further details.
!!!YEM: This file must be accompanied by the licensing agreement.
!!!YEM: A copy of the licensing agreement may be found at http://www.music-cog.ohio-state.edu/HumdrumDatabases/Palestrina/license.txt
!!!EMD: converted to Humdrum by Bret Aarden
